src/pos-icons/heart-flash.svg

<svg height="24" viewBox="0 0 24 24" width="24" xmlns="http://www.w3.org/2000/svg"><path d="m16.5 2.83c-1.74 0-3.41.81-4.5 2.07-1.09-1.26-2.76-2.07-4.5-2.07-3.08 0-5.5 2.41-5.5 5.5 0 3.77 3.4 6.86 8.55 11.53l1.45 1.31 1.45-1.31c5.15-4.67 8.55-7.76 8.55-11.53 0-3.09-2.42-5.5-5.5-5.5m-4.5 15v-4h-3l3-7v4h3"/></svg>

<?xml version="1.0" encoding="UTF-8"?><!DOCTYPE svg PUBLIC "-//W3C//DTD SVG 1.1//EN" "http://www.w3.org/Graphics/SVG/1.1/DTD/svg11.dtd"><svg xmlns="http://www.w3.org/2000/svg" xmlns:xlink="http://www.w3.org/1999/xlink" version="1.1" id="mdi-heart-flash" width="24" height="24" viewBox="0 0 24 24"><path d="M16.5,2.83C14.76,2.83 13.09,3.64 12,4.9C10.91,3.64 9.24,2.83 7.5,2.83C4.42,2.83 2,5.24 2,8.33C2,12.1 5.4,15.19 10.55,19.86L12,21.17L13.45,19.86C18.6,15.19 22,12.1 22,8.33C22,5.24 19.58,2.83 16.5,2.83M12,17.83V13.83H9L12,6.83V10.83H15" /></svg>
